X: 6
T: Jin zhu meimei
%%abc-version 2.0
%%abcx-abcm2ps-target-version 5.9.1 (29 Sep 2008)
%%abc-creator hum2abc beta
%%abcx-conversion-date 2013/10/02 07:44:27
%%abc-edited-by Helmut Schaffrath
%%humdrum-veritas 621331627
%%humdrum-veritas-data 2976986444
%%continueall 1
%%barnumbers 0
L: 1/8
M: 2/4
K: Bb
G2G F [I:setbarnb 1]| 
B B B G | 
FF2G | 
F2F z | 
G B B G | 
B B c f | 
d2d c | 
f2f d | 
c2c c | 
d c d f | 
B2G B | 
F2F2 | 
G B B B | 
c d B G | 
F4- | 
F2z2 |]  



